X:10
T: Die wiedergefundene Schwester (Suedeli - Ballade)
N: Q2072I
O: Mitteleuropa, Deutschland (DDR) , Lausitz, Wenden
N: Wendische Fassung der Ballade.
R: Ballade, Entfuehrung, Adelige als Dienstmagd, Rueckkehr
M: 3/4
L: 1/16
K: G
G4 | B4B4c4 | d4d4e4 | =f8e4 | d8
d4 | c4B2A2G4 | d4A4G4 | A4F4D2EF | G8
d4 | c4B2A2B2c2 | d4B4G4 | A4F2D2E2F2 | G4z4

@@@ Tune index: 1065
